src/assets/images/footer/social/youtube.svg

<svg width="56" height="56" viewBox="0 0 56 56" fill="none" xmlns="http://www.w3.org/2000/svg">
<rect width="56" height="56" rx="28" fill="#F78787" fill-opacity="0.15"/>
<g clip-path="url(#clip0_2_1342)">
<path fill-rule="evenodd" clip-rule="evenodd" d="M17.9171 24.2663C17.9171 22.1353 19.6445 20.4078 21.7755 20.4078H34.2219C36.3529 20.4078 38.0803 22.1353 38.0803 24.2663V31.7341C38.0803 33.8651 36.3529 35.5925 34.2219 35.5925H21.7755C19.6445 35.5925 17.9171 33.8651 17.9171 31.7341V24.2663ZM21.7755 18.1675C18.4072 18.1675 15.6767 20.898 15.6767 24.2663V31.7341C15.6767 35.1024 18.4072 37.8329 21.7755 37.8329H34.2219C37.5902 37.8329 40.3207 35.1024 40.3207 31.7341V24.2663C40.3207 20.898 37.5902 18.1675 34.2219 18.1675H21.7755ZM26.0881 23.3051C25.742 23.0975 25.311 23.0921 24.9598 23.2909C24.6086 23.4897 24.3915 23.8621 24.3915 24.2657V31.7336C24.3915 32.1371 24.6086 32.5095 24.9598 32.7084C25.311 32.9072 25.742 32.9018 26.0881 32.6941L32.3113 28.9602C32.6487 28.7577 32.8551 28.3931 32.8551 27.9996C32.8551 27.6062 32.6487 27.2415 32.3113 27.0391L26.0881 23.3051ZM29.5577 27.9996L26.6319 29.7551V26.2441L29.5577 27.9996Z" fill="#F78787"/>
</g>
<defs>
<clipPath id="clip0_2_1342">
<rect width="28" height="28" fill="white" transform="translate(14 14)"/>
</clipPath>
</defs>
</svg>

<svg width="56" height="56" fill="none" xmlns="http://www.w3.org/2000/svg"><rect width="56" height="56" rx="28" fill="#F78787" fill-opacity=".15"/><g clip-path="url(#clip0_2_1342)"><path fill-rule="evenodd" clip-rule="evenodd" d="M17.917 24.266a3.858 3.858 0 013.858-3.858h12.447a3.858 3.858 0 013.858 3.858v7.468a3.858 3.858 0 01-3.858 3.858H21.775a3.858 3.858 0 01-3.858-3.858v-7.468zm3.858-6.098a6.099 6.099 0 00-6.098 6.098v7.468a6.099 6.099 0 006.099 6.099h12.446a6.099 6.099 0 006.099-6.099v-7.468a6.099 6.099 0 00-6.1-6.098H21.777zm4.313 5.137a1.12 1.12 0 00-1.697.96v7.469a1.12 1.12 0 001.697.96l6.223-3.734a1.12 1.12 0 000-1.92l-6.223-3.735zM29.558 28l-2.926 1.755v-3.51L29.558 28z" fill="#F78787"/></g><defs><clipPath id="clip0_2_1342"><path fill="#fff" transform="translate(14 14)" d="M0 0h28v28H0z"/></clipPath></defs></svg>
